src/assets/imgs/icons/operate/ic_sent_big.svg

<?xml version="1.0" encoding="UTF-8"?>
<svg width="64px" height="64px" viewBox="0 0 64 64" version="1.1" xmlns="http://www.w3.org/2000/svg" xmlns:xlink="http://www.w3.org/1999/xlink">
    <!-- Generator: Sketch 50.2 (55047) - http://www.bohemiancoding.com/sketch -->
    <title>ic_sent_big</title>
    <desc>Created with Sketch.</desc>
    <defs></defs>
    <g id="Page-1" stroke="none" stroke-width="1" fill="none" fill-rule="evenodd">
        <g id="00A_Export" transform="translate(-445.000000, -69.000000)">
            <g id="ic_sent_big" transform="translate(445.000000, 69.000000)">
                <circle id="Oval-2" fill="#FA6778" cx="32" cy="32" r="32"></circle>
                <g id="shape" transform="translate(20.000000, 18.000000)" fill="#FFFFFF">
                    <path d="M23.7085,11.2925 L12.7085,0.2925 C12.3165,-0.0975 11.6845,-0.0975 11.2925,0.2925 L0.2925,11.2925 C-0.0975,11.6825 -0.0975,12.3165 0.2925,12.7085 C0.6845,13.0965 1.3165,13.0965 1.7085,12.7085 L11.0005,3.4165 L11.0005,27.0005 C11.0005,27.5525 11.4485,28.0005 12.0005,28.0005 C12.5505,28.0005 13.0005,27.5525 13.0005,27.0005 L13.0005,3.4145 L22.2925,12.7085 C22.4885,12.9025 22.7445,13.0005 23.0005,13.0005 C23.2545,13.0005 23.5125,12.9025 23.7085,12.7085 C24.0985,12.3165 24.0985,11.6825 23.7085,11.2925" id="Fill-1"></path>
                </g>
                <rect id="Overlay" x="0" y="0" width="64" height="64"></rect>
            </g>
        </g>
    </g>
</svg>

<?xml version="1.0" encoding="utf-8"?>
<!-- Generator: Adobe Illustrator 23.0.1, SVG Export Plug-In . SVG Version: 6.00 Build 0)  -->
<svg version="1.1" id="图层_1" xmlns="http://www.w3.org/2000/svg" xmlns:xlink="http://www.w3.org/1999/xlink" x="0px" y="0px"
	 viewBox="0 0 64 64" style="enable-background:new 0 0 64 64;" xml:space="preserve">
<style type="text/css">
	.st0{fill-rule:evenodd;clip-rule:evenodd;fill:#FF676B;}
	.st1{fill-rule:evenodd;clip-rule:evenodd;fill:#FFFFFF;}
	.st2{fill:none;}
</style>
<title>ic_sent_big</title>
<desc>Created with Sketch.</desc>
<circle id="Oval-2" class="st0" cx="32" cy="32" r="32"/>
<g id="shape" transform="translate(20.000000, 18.000000)">
	<path id="Fill-1" class="st1" d="M23.7,11.3l-11-11c-0.4-0.4-1-0.4-1.4,0l-11,11c-0.4,0.4-0.4,1,0,1.4c0.4,0.4,1,0.4,1.4,0L11,3.4
		V27c0,0.6,0.4,1,1,1c0.6,0,1-0.4,1-1V3.4l9.3,9.3c0.2,0.2,0.5,0.3,0.7,0.3c0.3,0,0.5-0.1,0.7-0.3C24.1,12.3,24.1,11.7,23.7,11.3"/>
</g>
<rect id="Overlay" y="0" class="st2" width="64" height="64"/>
</svg>
